src/assets/skills/curiosity.svg

<svg fill="none" height="737" viewBox="0 0 737 737" width="737" xmlns="http://www.w3.org/2000/svg" xmlns:xlink="http://www.w3.org/1999/xlink"><linearGradient id="a" gradientUnits="userSpaceOnUse" x1="368.5" x2="368.5" y1="0" y2="737"><stop offset=".00225706" stop-color="#2b5355"/><stop offset="1"/></linearGradient><clipPath id="b"><rect height="737" rx="368.5" width="737"/></clipPath><g clip-path="url(#b)"><path d="m0 368.5c0-203.517 164.983-368.5 368.5-368.5 203.517 0 368.5 164.983 368.5 368.5 0 203.517-164.983 368.5-368.5 368.5-203.517 0-368.5-164.983-368.5-368.5z" fill="url(#a)"/><g fill="#2ccbd3"><path d="m438.85 832.587c-135.267-93.938-205.57-250.373-240.725-365.055-38.174-124.511-44.326-228.089-44.382-229.125l-7.303.824c.056 1.036 6.239 105.394 44.634 230.736 35.484 115.824 106.523 273.855 243.466 368.963z"/><path d="m171.353 204.964c6.899 28.943 1.587 58.311-12.406 81.249-22.358-12.117-40.078-34.619-46.98-63.563-6.914-28.946-1.603-58.318 12.391-81.253 22.371 12.121 40.078 34.619 46.995 63.567zm-46.686 91.105c11.15 8.104 20.478 18.384 27.387 30.181 6.91 11.798 11.248 24.852 12.737 38.329-25.508 5.485-53.662.211-77.0944-16.849-11.1463-8.109-20.4716-18.39-27.3803-30.187s-11.249-24.85-12.7436-38.326c25.511-5.497 53.6623-.208 77.0943 16.852zm-19.222 154.177c40.068 4.953 76.241-22.313 76.241-22.313s-28.792-35.295-68.86-40.246c-40.0689-4.95-76.242 22.313-76.242 22.313s28.7919 35.295 68.861 40.246zm30.346 98.738c40.068 4.954 76.239-22.313 76.239-22.313s-28.789-35.294-68.86-40.246c-40.069-4.95-76.2394 22.313-76.2394 22.313s28.7893 35.295 68.8604 40.246z"/><path d="m267.709 279.849c-24.101 2.837-48.727 15.333-67.007 36.19-18.28 20.858-26.429 45.756-24.48 68.205 24.102-2.836 48.729-15.332 67.009-36.189 18.28-20.858 26.416-45.766 24.478-68.206z"/><path d="m378.878 825.336c-39.846-84.428-29.261-181.125-13.365-247.372 17.253-71.928 44.322-124.51 44.594-125.033l-3.868-1.664c-.272.523-27.551 53.496-44.935 125.893-16.063 66.901-26.747 164.592 13.589 250.068z"/><path d="m288.437 375.698c-23.771 5.02-47.224 19.686-63.565 42.089-16.34 22.404-22.194 47.901-18.231 70.012 23.786-5.013 47.24-19.678 63.579-42.082 16.342-22.402 22.207-47.892 18.217-70.019z"/><path d="m228.001 582.052c-6.079-9.309-16.261-15.887-28.617-17.238-12.355-1.351-24.321 2.813-33.189 10.5 6.078 9.311 16.26 15.889 28.618 17.241 12.342 1.342 24.305-2.823 33.188-10.503z"/><path d="m427.496 441.128c-5.003 15.972-16.261 28.717-29.999 35.896-7.681-12.167-9.994-28.061-4.991-44.036 4.996-15.977 29.992-35.901 29.992-35.901s9.995 28.061 4.998 44.041zm-47.525 33.519c3.227 7.068 4.903 14.677 4.92 22.34.018 7.664-1.623 15.214-4.819 22.166-14.411-4.521-27.004-15.002-33.776-29.866-3.225-7.067-4.899-14.675-4.917-22.338-.017-7.663 1.623-15.212 4.815-22.165 14.415 4.514 27.005 15 33.777 29.863zm-54.758 69.331c18.67 13.677 44.808 10.642 44.808 10.642s-4.131-25.213-22.798-38.889c-18.669-13.678-44.807-10.643-44.807-10.643s4.13 25.213 22.797 38.89zm-13.654 56.405c18.67 13.678 44.808 10.64 44.808 10.64s-4.13-25.212-22.797-38.889c-18.67-13.677-44.808-10.64-44.808-10.64s4.13 25.213 22.797 38.889z"/><path d="m339.779 624.964c6.567 3.08 10.954 8.485 12.562 14.536-6.351 2.324-13.738 2.212-20.299-.863-6.569-3.078-10.955-8.482-12.563-14.536 6.341-2.328 13.729-2.216 20.3.863z"/><path d="m450.27 498.169c-13.613-3.99-29.6-3.141-43.971 3.431-14.37 6.575-24.152 17.512-27.956 29.474 13.615 3.988 29.6 3.141 43.972-3.432 14.373-6.575 24.147-17.519 27.955-29.473z"/><path d="m435.938 562.193c-13.394-4.72-29.42-4.755-44.114 1.022-14.693 5.778-25.017 16.164-29.427 27.875 13.398 4.728 29.421 4.762 44.116-1.015 14.695-5.776 25.022-16.157 29.425-27.882z"/></g><path d="m448.095 418.256c-4.643-14.29 3.177-29.637 17.467-34.279 14.288-4.643 29.636 3.175 34.279 17.465l21.235 65.353-51.747 16.812z" fill="#e1e4e5"/><path d="m515.793 448.942-55.408 18.003c-6.509 2.115-10.071 9.106-7.956 15.615l80.355 247.309c2.115 6.509 9.106 10.071 15.616 7.956l55.407-18.003c6.51-2.115 10.072-9.106 7.957-15.615l-80.355-247.309c-2.115-6.509-9.107-10.071-15.616-7.956z" fill="#2b5355"/><path clip-rule="evenodd" d="m796.915 661.712-19.245-30.171c-23.62-37.031-57.094-66.745-96.664-85.808l-78.921-38.016c-12.722-6.13-26.663-9.313-40.785-9.314h-16.749l6.365 21.125-89.681-21.904c-10.434-2.549-20.706 4.737-21.751 15.427-.303 3.103.221 6.232 1.519 9.067 1.299 2.835 3.325 5.275 5.874 7.073l24.791 17.483c-15.533 7.483-17.688 28.731-3.973 39.179l12.597 9.598c-11.957 7.394-12.648 24.532-1.326 32.865l18.275 13.451c-1.129 5.714-.325 11.641 2.286 16.848 2.61 5.206 6.879 9.396 12.133 11.909l19.542 9.341c2.894 1.384 5.905 2.508 8.999 3.358l90.364 24.846 100.846 67.608z" fill="#ffc8bc" fill-rule="evenodd"/><path clip-rule="evenodd" d="m959.644 794.675-202.989-201.59-102.195 143.816 69.996 57.774z" fill="#2ccbd3" fill-rule="evenodd"/><path clip-rule="evenodd" d="m361.862 418.839c-90.655-32.997-137.4-133.228-104.407-223.871 32.991-90.646 133.228-137.3802 223.883-104.3855 90.655 32.9965 137.399 133.2275 104.406 223.8725-32.99 90.646-133.227 137.378-223.882 104.384zm14.233-40.006c-68.743-25.02-104.189-101.023-79.172-169.756 25.017-68.735 101.025-104.173 169.766-79.152 68.743 25.019 104.188 101.022 79.171 169.757-25.017 68.734-101.024 104.171-169.765 79.151z" fill="#d9d9d9" fill-rule="evenodd"/><path d="m376.095 378.833c-68.743-25.02-104.189-101.023-79.172-169.756 25.017-68.735 101.025-104.173 169.766-79.152 68.743 25.019 104.188 101.022 79.171 169.757-25.017 68.734-101.024 104.171-169.765 79.151z" fill="#fff" fill-opacity=".5"/></g></svg>

<svg width="737" height="737" viewBox="0 0 737 737" fill="none" xmlns="http://www.w3.org/2000/svg">
<g clip-path="url(#clip0_110_687)">
<path d="M0 368.5C0 164.983 164.983 0 368.5 0V0C572.017 0 737 164.983 737 368.5V368.5C737 572.017 572.017 737 368.5 737V737C164.983 737 0 572.017 0 368.5V368.5Z" fill="url(#paint0_linear_110_687)"/>
<path d="M438.85 832.587C303.583 738.649 233.28 582.214 198.125 467.532C159.951 343.021 153.799 239.443 153.743 238.407L146.44 239.231C146.496 240.267 152.679 344.625 191.074 469.967C226.558 585.791 297.597 743.822 434.54 838.93L438.85 832.587Z" fill="#2CCBD3"/>
<path d="M171.353 204.964C178.252 233.907 172.94 263.275 158.947 286.213C136.589 274.096 118.869 251.594 111.967 222.65C105.053 193.704 110.364 164.332 124.358 141.397C146.729 153.518 164.436 176.016 171.353 204.964ZM124.667 296.069C135.817 304.173 145.145 314.453 152.054 326.25C158.964 338.048 163.302 351.102 164.791 364.579C139.283 370.064 111.129 364.79 87.6966 347.73C76.5503 339.621 67.225 329.34 60.3163 317.543C53.4076 305.746 49.0673 292.693 47.5727 279.217C73.0837 273.72 101.235 279.009 124.667 296.069ZM105.445 450.246C145.513 455.199 181.686 427.933 181.686 427.933C181.686 427.933 152.894 392.638 112.826 387.687C72.7571 382.737 36.584 410 36.584 410C36.584 410 65.3759 445.295 105.445 450.246ZM135.791 548.984C175.859 553.938 212.03 526.671 212.03 526.671C212.03 526.671 183.241 491.377 143.17 486.425C103.101 481.475 66.9306 508.738 66.9306 508.738C66.9306 508.738 95.7199 544.033 135.791 548.984Z" fill="#2CCBD3"/>
<path d="M267.709 279.849C243.608 282.686 218.982 295.182 200.702 316.039C182.422 336.897 174.273 361.795 176.222 384.244C200.324 381.408 224.951 368.912 243.231 348.055C261.511 327.197 269.647 302.289 267.709 279.849Z" fill="#2CCBD3"/>
<path d="M378.878 825.336C339.032 740.908 349.617 644.211 365.513 577.964C382.766 506.036 409.835 453.454 410.107 452.931L406.239 451.267C405.967 451.79 378.688 504.763 361.304 577.16C345.241 644.061 334.557 741.752 374.893 827.228L378.878 825.336Z" fill="#2CCBD3"/>
<path d="M288.437 375.698C264.666 380.718 241.213 395.384 224.872 417.787C208.532 440.191 202.678 465.688 206.641 487.799C230.427 482.786 253.881 468.121 270.22 445.717C286.562 423.315 292.427 397.825 288.437 375.698Z" fill="#2CCBD3"/>
<path d="M228.001 582.052C221.922 572.743 211.74 566.165 199.384 564.814C187.029 563.463 175.063 567.627 166.195 575.314C172.273 584.625 182.455 591.203 194.813 592.555C207.155 593.897 219.118 589.732 228.001 582.052Z" fill="#2CCBD3"/>
<path d="M427.496 441.128C422.493 457.1 411.235 469.845 397.497 477.024C389.816 464.857 387.503 448.963 392.506 432.988C397.502 417.011 422.498 397.087 422.498 397.087C422.498 397.087 432.493 425.148 427.496 441.128ZM379.971 474.647C383.198 481.715 384.874 489.324 384.891 496.987C384.909 504.651 383.268 512.201 380.072 519.153C365.661 514.632 353.068 504.151 346.296 489.287C343.071 482.22 341.397 474.612 341.379 466.949C341.362 459.286 343.002 451.737 346.194 444.784C360.609 449.298 373.199 459.784 379.971 474.647ZM325.213 543.978C343.883 557.655 370.021 554.62 370.021 554.62C370.021 554.62 365.89 529.407 347.223 515.731C328.554 502.053 302.416 505.088 302.416 505.088C302.416 505.088 306.546 530.301 325.213 543.978ZM311.559 600.383C330.229 614.061 356.367 611.023 356.367 611.023C356.367 611.023 352.237 585.811 333.57 572.134C314.9 558.457 288.762 561.494 288.762 561.494C288.762 561.494 292.892 586.707 311.559 600.383Z" fill="#2CCBD3"/>
<path d="M339.779 624.964C346.346 628.044 350.733 633.449 352.341 639.5C345.99 641.824 338.603 641.712 332.042 638.637C325.473 635.559 321.087 630.155 319.479 624.101C325.82 621.773 333.208 621.885 339.779 624.964Z" fill="#2CCBD3"/>
<path d="M450.27 498.169C436.657 494.179 420.67 495.028 406.299 501.6C391.929 508.175 382.147 519.112 378.343 531.074C391.958 535.062 407.943 534.215 422.315 527.642C436.688 521.067 446.462 510.123 450.27 498.169Z" fill="#2CCBD3"/>
<path d="M435.938 562.193C422.544 557.473 406.518 557.438 391.824 563.215C377.131 568.993 366.807 579.379 362.397 591.09C375.795 595.818 391.818 595.852 406.513 590.075C421.208 584.299 431.535 573.918 435.938 562.193Z" fill="#2CCBD3"/>
<path d="M448.095 418.256C443.452 403.966 451.272 388.619 465.562 383.977C479.85 379.334 495.198 387.152 499.841 401.442L521.076 466.795L469.329 483.607L448.095 418.256V418.256Z" fill="#E1E4E5"/>
<path d="M515.793 448.942L460.385 466.945C453.876 469.06 450.314 476.051 452.429 482.56L532.784 729.869C534.899 736.378 541.89 739.94 548.4 737.825L603.807 719.822C610.317 717.707 613.879 710.716 611.764 704.207L531.409 456.898C529.294 450.389 522.302 446.827 515.793 448.942Z" fill="#2B5355"/>
<path fill-rule="evenodd" clip-rule="evenodd" d="M796.915 661.712L777.67 631.541C754.05 594.51 720.576 564.796 681.006 545.733L602.085 507.717C589.363 501.587 575.422 498.404 561.3 498.403H544.551L550.916 519.528L461.235 497.624C450.801 495.075 440.529 502.361 439.484 513.051C439.181 516.154 439.705 519.283 441.003 522.118C442.302 524.953 444.328 527.393 446.877 529.191L471.668 546.674C456.135 554.157 453.98 575.405 467.695 585.853L480.292 595.451C468.335 602.845 467.644 619.983 478.966 628.316L497.241 641.767C496.112 647.481 496.916 653.408 499.527 658.615C502.137 663.821 506.406 668.011 511.66 670.524L531.202 679.865C534.096 681.249 537.107 682.373 540.201 683.223L630.565 708.069L731.411 775.677L796.915 661.712V661.712Z" fill="#FFC8BC"/>
<path fill-rule="evenodd" clip-rule="evenodd" d="M959.644 794.675L756.655 593.085L654.46 736.901L724.456 794.675H959.644Z" fill="#2CCBD3"/>
<path fill-rule="evenodd" clip-rule="evenodd" d="M361.862 418.839C271.207 385.842 224.462 285.611 257.455 194.968C290.446 104.322 390.683 57.5878 481.338 90.5825C571.993 123.579 618.737 223.81 585.744 314.455C552.754 405.101 452.517 451.833 361.862 418.839ZM376.095 378.833C307.352 353.813 271.906 277.81 296.923 209.077C321.94 140.342 397.948 104.904 466.689 129.925C535.432 154.944 570.877 230.947 545.86 299.682C520.843 368.416 444.836 403.853 376.095 378.833Z" fill="#D9D9D9"/>
<path d="M376.095 378.833C307.352 353.813 271.906 277.81 296.923 209.077C321.94 140.342 397.948 104.904 466.689 129.925C535.432 154.944 570.877 230.947 545.86 299.682C520.843 368.416 444.836 403.853 376.095 378.833Z" fill="white" fill-opacity="0.5"/>
</g>
<defs>
<linearGradient id="paint0_linear_110_687" x1="368.5" y1="0" x2="368.5" y2="737" gradientUnits="userSpaceOnUse">
<stop offset="0.00225706" stop-color="#2B5355"/>
<stop offset="1"/>
</linearGradient>
<clipPath id="clip0_110_687">
<rect width="737" height="737" rx="368.5" fill="white"/>
</clipPath>
</defs>
</svg>
